X:485
T:Lady Elgin's Courtship Reel
M:2/4
L:1/16
Z:abc by Bruce Osborne - bosborne@kos.net
K:Bb
d|B2FB DBFB|B2dB Accd|B2FB DBFB|ABce dBBd|!
B2FB DBFB|B2dB Accd|B2FB DBFB|ABce dBB:|!
|:d|BBdB fBdB|BBdB Accd|BBdB fBdB|ABce dBBd|!
BBdB fBdB|BBdB Accd|BBdB fBdB|ecAc dBB:|!
